resources/icons/materials-manufactured.svg

<?xml version="1.0" encoding="UTF-8" standalone="no"?>
<svg
   viewBox="0 0 1000 1000"
   preserveAspectRatio="xMidYMid meet"
   version="1.1"
   id="svg4"
   sodipodi:docname="materials-manufactured.svg"
   inkscape:version="1.1.1 (3bf5ae0d25, 2021-09-20)"
   xmlns:inkscape="http://www.inkscape.org/namespaces/inkscape"
   xmlns:sodipodi="http://sodipodi.sourceforge.net/DTD/sodipodi-0.dtd"
   xmlns="http://www.w3.org/2000/svg"
   xmlns:svg="http://www.w3.org/2000/svg">
  <defs
     id="defs8" />
  <sodipodi:namedview
     id="namedview6"
     pagecolor="#ffffff"
     bordercolor="#666666"
     borderopacity="1.0"
     inkscape:pageshadow="2"
     inkscape:pageopacity="0.0"
     inkscape:pagecheckerboard="0"
     showgrid="false"
     inkscape:zoom="0.47805619"
     inkscape:cx="480.06909"
     inkscape:cy="909.93488"
     inkscape:window-width="2146"
     inkscape:window-height="1480"
     inkscape:window-x="987"
     inkscape:window-y="375"
     inkscape:window-maximized="0"
     inkscape:current-layer="svg4"
     inkscape:snap-global="false" />
  <path
     id="path1549"
     style="fill-rule:evenodd;stroke-width:50;paint-order:fill markers stroke"
     d="M 413.01758 30.994141 C 361.04576 30.994141 315.25164 58.743072 289.67773 100.14453 C 283.01553 110.33558 277.53936 121.36573 273.61914 133.11328 C 238.69828 216.31676 195.94869 296.06316 155.92383 376.90039 C 131.94943 378.52079 112.16915 394.17767 104.13281 415.49219 C 100.99384 422.46675 99.232424 430.13836 99.232422 438.26758 C 99.232422 438.41648 99.242971 438.56234 99.244141 438.71094 L 19.664062 509.56836 C 28.063538 533.19124 24.360733 594.54912 32.517578 627 L 86.283203 617.20898 L 78.693359 530.29688 L 125.80078 491.01562 C 127.2456 490.14722 128.46776 489.55239 129.77539 488.85352 C 137.35528 493.22727 145.92566 496.20722 155.01367 497.42383 L 166.32031 572.11914 L 113.66406 632.85938 L 162.07422 669.70117 C 162.10192 669.75677 233.25977 585.76172 233.25977 585.76172 L 216.27148 474.21875 C 224.45293 464.30792 229.38672 451.92493 229.38672 438.26758 C 229.38672 437.74213 229.35825 437.22479 229.34375 436.70312 C 247.07062 425.8757 423.63907 318.06393 424.06836 320.74805 L 522.55273 739.28906 C 537.0608 851.94474 633.91741 939.75195 750.35547 939.75195 C 876.7184 939.75195 980.10934 836.36294 980.10938 710 C 961.49192 562.52129 850.29843 478.74041 755.41406 367.82422 C 673.2514 277.27451 600.13112 168.3004 520.67188 79.203125 C 520.64778 79.137065 520.62967 79.083657 520.60547 79.017578 C 520.52597 78.799706 520.47387 78.619936 520.39453 78.402344 L 519.58789 78.011719 C 493.06061 49.157361 455.06179 30.994141 413.01758 30.994141 z M 413.01758 86.980469 C 462.43853 86.980469 501.90235 126.44429 501.90234 175.86523 C 501.90235 225.28618 462.43853 264.75 413.01758 264.75 C 363.59665 264.75 324.13281 225.28618 324.13281 175.86523 C 324.13282 126.44429 363.59665 86.980469 413.01758 86.980469 z M 410.94727 123.50781 A 53.341011 53.341011 0 0 0 357.60742 176.84961 A 53.341011 53.341011 0 0 0 410.94727 230.18945 A 53.341011 53.341011 0 0 0 464.28906 176.84961 A 53.341011 53.341011 0 0 0 410.94727 123.50781 z M 541.79688 241.92773 L 740.47266 480.49805 C 666.00379 483.69286 600.43476 522.7514 560.70312 580.75977 L 493.32031 296.25781 C 513.71841 282.57945 530.46393 263.85783 541.79688 241.92773 z M 293.55273 257.52734 C 302.94672 271.20034 314.62414 283.18523 328.01758 292.95117 L 249.00391 345.88086 L 293.55273 257.52734 z M 750.35547 569.03711 C 838.23019 572.82586 888.42604 631.45075 891.32031 710 C 891.32031 788.37734 828.7328 850.96094 750.35547 850.96094 C 671.97813 850.96094 609.39453 788.37734 609.39453 710 C 609.39453 631.62267 671.97813 569.03711 750.35547 569.03711 z M 746.77344 624.4043 A 88.901688 88.901688 0 0 0 657.87305 713.30469 A 88.901688 88.901688 0 0 0 746.77344 802.20703 A 88.901688 88.901688 0 0 0 835.67578 713.30469 A 88.901688 88.901688 0 0 0 746.77344 624.4043 z " />
</svg>

<?xml version="1.0" encoding="UTF-8" standalone="no"?>
<svg
   viewBox="0 0 1000 1000"
   preserveAspectRatio="xMidYMid meet"
   version="1.1"
   id="svg4"
   sodipodi:docname="materials-manufactured.svg"
   inkscape:version="1.1.1 (3bf5ae0d25, 2021-09-20)"
   xmlns:inkscape="http://www.inkscape.org/namespaces/inkscape"
   xmlns:sodipodi="http://sodipodi.sourceforge.net/DTD/sodipodi-0.dtd"
   xmlns="http://www.w3.org/2000/svg"
   xmlns:svg="http://www.w3.org/2000/svg">
  <defs
     id="defs8" />
  <sodipodi:namedview
     id="namedview6"
     pagecolor="#ffffff"
     bordercolor="#666666"
     borderopacity="1.0"
     inkscape:pageshadow="2"
     inkscape:pageopacity="0.0"
     inkscape:pagecheckerboard="0"
     showgrid="false"
     inkscape:zoom="0.47805619"
     inkscape:cx="571.06258"
     inkscape:cy="909.93487"
     inkscape:window-width="2146"
     inkscape:window-height="1480"
     inkscape:window-x="987"
     inkscape:window-y="375"
     inkscape:window-maximized="0"
     inkscape:current-layer="svg4"
     inkscape:snap-global="false" />
  <path
     id="path5125"
     style="fill-rule:evenodd;stroke-width:24.4763;paint-order:fill markers stroke"
     d="m 413.01758,30.994141 c -51.97182,0 -97.76594,27.748928 -123.33985,69.150389 -6.6622,10.19105 -12.13837,21.2212 -16.05859,32.96875 -34.92086,83.20348 -77.67045,162.94988 -117.69531,243.78711 -23.9744,1.6204 -43.75468,17.27728 -51.79102,38.5918 -3.13897,6.97456 -4.900386,14.64617 -4.900388,22.77539 0,0.1489 0.01055,0.29476 0.01172,0.44336 L 19.664062,509.56836 C 28.063538,533.19124 24.360733,594.54912 32.517578,627 l 53.765625,-9.79102 -7.589844,-86.9121 47.107421,-39.28126 c 1.44482,-0.8684 2.66698,-1.46323 3.97461,-2.1621 7.57989,4.37375 16.15027,7.3537 25.23828,8.57031 l 11.30664,74.69531 -52.65625,60.74024 48.41016,36.84179 c 0.0277,0.0556 71.18555,-83.93945 71.18555,-83.93945 L 216.27148,474.21875 c 8.18145,-9.91083 13.11524,-22.29382 13.11524,-35.95117 0,-0.52545 -0.0285,-1.04282 -0.043,-1.56446 17.72687,-10.82742 194.29532,-118.63919 194.72461,-115.95507 l 98.48437,418.54101 C 537.06074,851.94474 633.91741,939.75195 750.35547,939.75195 876.7184,939.75195 980.10936,836.36294 980.10938,710 961.49192,562.52129 850.29843,478.74041 755.41406,367.82422 673.2514,277.27451 600.13113,168.3004 520.67188,79.203125 c -0.0241,-0.06606 -0.0422,-0.119468 -0.0664,-0.185547 -0.0795,-0.217872 -0.1316,-0.397642 -0.21094,-0.615234 l -0.80664,-0.390625 C 493.06063,49.157361 455.06179,30.994141 413.01758,30.994141 Z m 0,55.986328 c 49.42095,0 88.88477,39.463821 88.88476,88.884761 1e-5,49.42095 -39.46381,88.88477 -88.88476,88.88477 -49.42093,0 -88.88477,-39.46382 -88.88477,-88.88477 10e-6,-49.42094 39.46384,-88.884761 88.88477,-88.884761 z m -0.93164,40.457031 c -29.25524,0 -53.57227,23.44483 -53.57227,52.45703 0,29.01221 24.31702,52.45899 53.57227,52.45899 29.25524,0 53.57032,-23.44678 53.57031,-52.45899 0,-29.0122 -24.31507,-52.45703 -53.57031,-52.45703 z m 0,25.02148 c 16.09882,0 28.54882,12.32312 28.54883,27.43555 0,15.11244 -12.45001,27.4375 -28.54883,27.4375 -16.09883,0 -28.55079,-12.32506 -28.55078,-27.4375 0,-15.11243 12.45195,-27.43555 28.55078,-27.43555 z m 129.71094,89.46875 198.67578,238.57032 c -74.46887,3.19481 -140.0379,42.25335 -179.76954,100.26172 L 493.32031,296.25781 c 20.3981,-13.67836 37.14362,-32.39998 48.47657,-54.33008 z m -248.24415,15.59961 c 9.39399,13.673 21.07141,25.65789 34.46485,35.42383 l -79.01367,52.92969 z m 456.80274,311.50977 c 77.4157,10.06416 138.07057,62.41364 140.96484,140.96289 0,78.37734 -62.58751,140.96094 -140.96484,140.96094 -78.37734,0 -140.96094,-62.5836 -140.96094,-140.96094 0,-78.37733 62.5836,-140.96289 140.96094,-140.96289 z m -1.49024,39.33008 c -58.41936,0 -106.97459,46.81985 -106.97461,104.7539 0,57.93406 48.55525,104.75391 106.97461,104.75391 58.41937,0 106.97657,-46.81985 106.97657,-104.75391 0,-57.93405 -48.5572,-104.7539 -106.97657,-104.7539 z m 0,49.96679 c 32.1475,0 57.00977,24.60933 57.00977,54.78711 0,30.17779 -24.86227,54.78711 -57.00977,54.78711 -32.14749,0 -57.00976,-24.60932 -57.00976,-54.78711 0,-30.17778 24.86227,-54.78711 57.00976,-54.78711 z" />
</svg>
